packages/kaspersky-hexa-ui-icons/src/iconsSVGs/16/License1.svg

<svg width="16" height="16" viewBox="0 0 16 16" fill="none" xmlns="http://www.w3.org/2000/svg">
<path d="M5.35 4.66666C5.35 4.30768 5.64102 4.01666 6 4.01666H10C10.359 4.01666 10.65 4.30768 10.65 4.66666C10.65 5.02565 10.359 5.31666 10 5.31666H6C5.64102 5.31666 5.35 5.02565 5.35 4.66666Z" fill="black"/>
<path d="M5.35 6.66666C5.35 6.30768 5.64102 6.01666 6 6.01666H8.66667C9.02565 6.01666 9.31667 6.30768 9.31667 6.66666C9.31667 7.02565 9.02565 7.31666 8.66667 7.31666H6C5.64102 7.31666 5.35 7.02565 5.35 6.66666Z" fill="black"/>
<path d="M5.35 9.33333C5.35 8.97435 5.64102 8.68333 6 8.68333H6.66667C7.02565 8.68333 7.31667 8.97435 7.31667 9.33333C7.31667 9.69232 7.02565 9.98333 6.66667 9.98333H6C5.64102 9.98333 5.35 9.69232 5.35 9.33333Z" fill="black"/>
<path d="M11.3334 11.3333C11.3334 12.0697 10.7364 12.6667 10 12.6667C9.26364 12.6667 8.66669 12.0697 8.66669 11.3333C8.66669 10.597 9.26364 10 10 10C10.7364 10 11.3334 10.597 11.3334 11.3333Z" fill="black"/>
<path fill-rule="evenodd" clip-rule="evenodd" d="M2.3125 3.6C2.3125 2.16406 3.47656 1 4.9125 1H11.0875C12.5234 1 13.6875 2.16406 13.6875 3.6V12.4C13.6875 13.8359 12.5234 15 11.0875 15H4.9125C3.47656 15 2.3125 13.8359 2.3125 12.4V3.6ZM4.9125 2.3H11.0875C11.8055 2.3 12.3875 2.88203 12.3875 3.6V12.4C12.3875 13.118 11.8055 13.7 11.0875 13.7H4.9125C4.19453 13.7 3.6125 13.118 3.6125 12.4V3.6C3.6125 2.88203 4.19453 2.3 4.9125 2.3Z" fill="black"/>
</svg>

<svg xmlns="http://www.w3.org/2000/svg" width="16" height="16" fill="none" viewBox="0 0 16 16"><path fill="#000" d="M5.35 4.667a.65.65 0 0 1 .65-.65h4a.65.65 0 1 1 0 1.3H6a.65.65 0 0 1-.65-.65m0 2a.65.65 0 0 1 .65-.65h2.667a.65.65 0 0 1 0 1.3H6a.65.65 0 0 1-.65-.65m0 2.666a.65.65 0 0 1 .65-.65h.667a.65.65 0 0 1 0 1.3H6a.65.65 0 0 1-.65-.65m5.983 2c0 .736-.597 1.333-1.333 1.333s-1.333-.597-1.333-1.333S9.264 10 10 10s1.333.597 1.333 1.333"/><path fill="#000" fill-rule="evenodd" d="M2.3125 3.6c0-1.436 1.164-2.6 2.6-2.6h6.175c1.4359 0 2.6 1.164 2.6 2.6v8.8c0 1.4359-1.1641 2.6-2.6 2.6h-6.175c-1.436 0-2.6-1.1641-2.6-2.6zm2.6-1.3h6.175c.718 0 1.3.582 1.3 1.3v8.8c0 .718-.582 1.3-1.3 1.3h-6.175c-.718 0-1.3-.582-1.3-1.3V3.6c0-.718.582-1.3 1.3-1.3" clip-rule="evenodd"/></svg>
